static/img/kroki/eabd226bcff715b854175ee6d365a41b.svg

<?xml version="1.0" encoding="us-ascii" standalone="no"?><svg xmlns="http://www.w3.org/2000/svg" xmlns:xlink="http://www.w3.org/1999/xlink" contentStyleType="text/css" height="374px" preserveAspectRatio="none" style="width:569px;height:374px;" version="1.1" viewBox="0 0 569 374" width="569px" zoomAndPan="magnify"><defs/><g><!--class aws_eks_cluster--><g id="elem_aws_eks_cluster"><rect codeLine="23" fill="#3D176E" height="39.7891" id="aws_eks_cluster" rx="2.5" ry="2.5" style="stroke:#000D19;stroke-width:0.5;" width="177" x="143" y="328.58"/><ellipse cx="158" cy="348.4745" fill="#ADD1B2" rx="11" ry="11" style="stroke:#181818;stroke-width:1.0;"/><path d="M160.9688,354.1152 Q160.3906,354.412 159.75,354.5527 Q159.1094,354.7089 158.4063,354.7089 Q155.9063,354.7089 154.5781,353.0683 Q153.2656,351.412 153.2656,348.287 Q153.2656,345.162 154.5781,343.5058 Q155.9063,341.8495 158.4063,341.8495 Q159.1094,341.8495 159.75,342.0058 Q160.4063,342.162 160.9688,342.4589 L160.9688,345.1777 Q160.3438,344.5995 159.75,344.3339 Q159.1563,344.0527 158.5313,344.0527 Q157.1875,344.0527 156.5,345.1308 Q155.8125,346.1933 155.8125,348.287 Q155.8125,350.3808 156.5,351.4589 Q157.1875,352.5214 158.5313,352.5214 Q159.1563,352.5214 159.75,352.2558 Q160.3438,351.9745 160.9688,351.3964 L160.9688,354.1152 Z " fill="#000000"/><text fill="#D9B8FF" font-family="Helvetica" font-size="17" lengthAdjust="spacing" textLength="135" x="177" y="354.3598">aws_eks_cluster</text></g><!--class aws_resource--><g id="elem_aws_resource"><rect codeLine="26" fill="#3D176E" height="39.7891" id="aws_resource" rx="2.5" ry="2.5" style="stroke:#000D19;stroke-width:0.5;" width="155" x="7" y="167.79"/><ellipse cx="22" cy="187.6845" fill="#ADD1B2" rx="11" ry="11" style="stroke:#181818;stroke-width:1.0;"/><path d="M24.9688,193.3252 Q24.3906,193.622 23.75,193.7627 Q23.1094,193.9189 22.4063,193.9189 Q19.9063,193.9189 18.5781,192.2783 Q17.2656,190.622 17.2656,187.497 Q17.2656,184.372 18.5781,182.7158 Q19.9063,181.0595 22.4063,181.0595 Q23.1094,181.0595 23.75,181.2158 Q24.4063,181.372 24.9688,181.6689 L24.9688,184.3877 Q24.3438,183.8095 23.75,183.5439 Q23.1563,183.2627 22.5313,183.2627 Q21.1875,183.2627 20.5,184.3408 Q19.8125,185.4033 19.8125,187.497 Q19.8125,189.5908 20.5,190.6689 Q21.1875,191.7314 22.5313,191.7314 Q23.1563,191.7314 23.75,191.4658 Q24.3438,191.1845 24.9688,190.6064 L24.9688,193.3252 Z " fill="#000000"/><text fill="#D9B8FF" font-family="Helvetica" font-size="17" lengthAdjust="spacing" textLength="113" x="41" y="193.5698">aws_resource</text></g><!--class managed_kubernetes_cluster_provider--><g id="elem_managed_kubernetes_cluster_provider"><rect codeLine="29" fill="#3D176E" height="39.7891" id="managed_kubernetes_cluster_provider" rx="2.5" ry="2.5" style="stroke:#000D19;stroke-width:0.5;" width="366" x="196.5" y="167.79"/><ellipse cx="211.5" cy="187.6845" fill="#ADD1B2" rx="11" ry="11" style="stroke:#181818;stroke-width:1.0;"/><path d="M214.4688,193.3252 Q213.8906,193.622 213.25,193.7627 Q212.6094,193.9189 211.9063,193.9189 Q209.4063,193.9189 208.0781,192.2783 Q206.7656,190.622 206.7656,187.497 Q206.7656,184.372 208.0781,182.7158 Q209.4063,181.0595 211.9063,181.0595 Q212.6094,181.0595 213.25,181.2158 Q213.9063,181.372 214.4688,181.6689 L214.4688,184.3877 Q213.8438,183.8095 213.25,183.5439 Q212.6563,183.2627 212.0313,183.2627 Q210.6875,183.2627 210,184.3408 Q209.3125,185.4033 209.3125,187.497 Q209.3125,189.5908 210,190.6689 Q210.6875,191.7314 212.0313,191.7314 Q212.6563,191.7314 213.25,191.4658 Q213.8438,191.1845 214.4688,190.6064 L214.4688,193.3252 Z " fill="#000000"/><text fill="#D9B8FF" font-family="Helvetica" font-size="17" lengthAdjust="spacing" textLength="324" x="230.5" y="193.5698">managed_kubernetes_cluster_provider</text></g><!--class resource--><g id="elem_resource"><rect codeLine="32" fill="#3D176E" height="39.7891" id="resource" rx="2.5" ry="2.5" style="stroke:#000D19;stroke-width:0.5;" width="113" x="175" y="7"/><ellipse cx="190" cy="26.8945" fill="#ADD1B2" rx="11" ry="11" style="stroke:#181818;stroke-width:1.0;"/><path d="M192.9688,32.5352 Q192.3906,32.832 191.75,32.9727 Q191.1094,33.1289 190.4063,33.1289 Q187.9063,33.1289 186.5781,31.4883 Q185.2656,29.832 185.2656,26.707 Q185.2656,23.582 186.5781,21.9258 Q187.9063,20.2695 190.4063,20.2695 Q191.1094,20.2695 191.75,20.4258 Q192.4063,20.582 192.9688,20.8789 L192.9688,23.5977 Q192.3438,23.0195 191.75,22.7539 Q191.1563,22.4727 190.5313,22.4727 Q189.1875,22.4727 188.5,23.5508 Q187.8125,24.6133 187.8125,26.707 Q187.8125,28.8008 188.5,29.8789 Q189.1875,30.9414 190.5313,30.9414 Q191.1563,30.9414 191.75,30.6758 Q192.3438,30.3945 192.9688,29.8164 L192.9688,32.5352 Z " fill="#000000"/><text fill="#D9B8FF" font-family="Helvetica" font-size="17" lengthAdjust="spacing" textLength="71" x="209" y="32.7798">resource</text></g><!--reverse link aws_resource to aws_eks_cluster--><g id="link_aws_resource_aws_eks_cluster"><path codeLine="35" d="M114.4595,221.0475 C142.7195,251.5675 185.41,297.69 213.71,328.25 " fill="none" id="aws_resource-backto-aws_eks_cluster" style="stroke:#FFAF37;stroke-width:2.0;"/><polygon fill="none" points="102.23,207.84,110.057,225.124,118.862,216.971,102.23,207.84" style="stroke:#FFAF37;stroke-width:2.0;"/></g><!--reverse link managed_kubernetes_cluster_provider to aws_eks_cluster--><g id="link_managed_kubernetes_cluster_provider_aws_eks_cluster"><path codeLine="36" d="M349.3764,221.0066 C320.9264,251.5266 277.9,297.69 249.42,328.25 " fill="none" id="managed_kubernetes_cluster_provider-backto-aws_eks_cluster" style="stroke:#FFAF37;stroke-width:2.0;"/><polygon fill="none" points="361.65,207.84,344.9876,216.9154,353.7653,225.0978,361.65,207.84" style="stroke:#FFAF37;stroke-width:2.0;"/></g><!--reverse link resource to aws_resource--><g id="link_resource_aws_resource"><path codeLine="37" d="M201.5405,60.2575 C173.2805,90.7775 130.59,136.9 102.29,167.46 " fill="none" id="resource-backto-aws_resource" style="stroke:#FFAF37;stroke-width:2.0;"/><polygon fill="none" points="213.77,47.05,197.138,56.181,205.943,64.334,213.77,47.05" style="stroke:#FFAF37;stroke-width:2.0;"/></g><!--reverse link resource to managed_kubernetes_cluster_provider--><g id="link_resource_managed_kubernetes_cluster_provider"><path codeLine="38" d="M261.6236,60.2166 C290.0736,90.7366 333.1,136.9 361.58,167.46 " fill="none" id="resource-backto-managed_kubernetes_cluster_provider" style="stroke:#FFAF37;stroke-width:2.0;"/><polygon fill="none" points="249.35,47.05,257.2347,64.3078,266.0124,56.1254,249.35,47.05" style="stroke:#FFAF37;stroke-width:2.0;"/></g><!--SRC=[ZPFBQiCm44Nt_Wf1rW6deNK2tQI6qcv2QRet4sla2DkI6SanwUFVQpTDaEMyjdFFtBapI1l9aM5PsHqhiLmZcS3aKbL0KB85aMvYNMXY8o50J2DVVDRANWMMK29xmMABLgRW4nyRcUOAZM5tZlG4QPwHhXNVsri2PLe9bNMek01Z5jQINDSMdJ1ylfu9uPE-wMZA9z433Z1D7EaV2SEGJ-O-SdNKnRsFn4f-8fkuHrjgYuEOWn5_rCMK7U6472nwqCzcV0FEfShOlLDxtsSYXTIhhpR0TTFH0WhZZZ4M2RNTLHWFjiBvZ8le9Fnw3WxIxdGC6fDWRfAqgBiczXK4Fuv4Q7HDARhr4XHao9EyRX-vGel7xgGYlMs_GS-cRz4pVVmUZyT-XE0M_zET9umF9L-xOKZm2m00]--></g></svg>

<svg xmlns="http://www.w3.org/2000/svg" width="569" height="374" viewBox="0 0 569 374"><rect width="177" height="39.789" x="143" y="328.58" fill="#3D176E" rx="2.5" ry="2.5" style="stroke:#000d19;stroke-width:.5"/><circle cx="158" cy="348.474" r="11" fill="#ADD1B2" style="stroke:#181818;stroke-width:1"/><path d="M160.969 354.115q-.578.297-1.219.438-.64.156-1.344.156-2.5 0-3.828-1.64-1.312-1.657-1.312-4.782t1.312-4.781q1.328-1.656 3.828-1.656.703 0 1.344.156.656.156 1.219.453v2.719q-.625-.579-1.219-.844-.594-.281-1.219-.281-1.344 0-2.031 1.078-.687 1.062-.687 3.156t.687 3.172q.688 1.062 2.031 1.062.625 0 1.219-.265.594-.281 1.219-.86z"/><text x="177" y="354.36" fill="#D9B8FF" font-family="Helvetica" font-size="17" textLength="135">aws_eks_cluster</text><rect width="155" height="39.789" x="7" y="167.79" fill="#3D176E" rx="2.5" ry="2.5" style="stroke:#000d19;stroke-width:.5"/><circle cx="22" cy="187.685" r="11" fill="#ADD1B2" style="stroke:#181818;stroke-width:1"/><path d="M24.969 193.325q-.578.297-1.219.438-.64.156-1.344.156-2.5 0-3.828-1.64-1.312-1.657-1.312-4.782t1.312-4.781q1.328-1.656 3.828-1.656.703 0 1.344.156.656.156 1.219.453v2.719q-.625-.578-1.219-.844-.594-.281-1.219-.281-1.343 0-2.031 1.078-.687 1.062-.687 3.156t.687 3.172q.688 1.062 2.031 1.062.625 0 1.219-.265.594-.281 1.219-.86z"/><text x="41" y="193.57" fill="#D9B8FF" font-family="Helvetica" font-size="17" textLength="113">aws_resource</text><rect width="366" height="39.789" x="196.5" y="167.79" fill="#3D176E" rx="2.5" ry="2.5" style="stroke:#000d19;stroke-width:.5"/><circle cx="211.5" cy="187.685" r="11" fill="#ADD1B2" style="stroke:#181818;stroke-width:1"/><path d="M214.469 193.325q-.578.297-1.219.438-.64.156-1.344.156-2.5 0-3.828-1.64-1.312-1.657-1.312-4.782t1.312-4.781q1.328-1.656 3.828-1.656.703 0 1.344.156.656.156 1.219.453v2.719q-.625-.578-1.219-.844-.594-.281-1.219-.281-1.344 0-2.031 1.078-.687 1.062-.687 3.156t.687 3.172q.688 1.062 2.031 1.062.625 0 1.219-.265.594-.281 1.219-.86z"/><text x="230.5" y="193.57" fill="#D9B8FF" font-family="Helvetica" font-size="17" textLength="324">managed_kubernetes_cluster_provider</text><rect width="113" height="39.789" x="175" y="7" fill="#3D176E" rx="2.5" ry="2.5" style="stroke:#000d19;stroke-width:.5"/><circle cx="190" cy="26.895" r="11" fill="#ADD1B2" style="stroke:#181818;stroke-width:1"/><path d="M192.969 32.535q-.578.297-1.219.438-.64.156-1.344.156-2.5 0-3.828-1.64-1.312-1.657-1.312-4.782t1.312-4.781q1.328-1.656 3.828-1.656.703 0 1.344.156.656.156 1.219.453v2.719q-.625-.578-1.219-.844-.594-.281-1.219-.281-1.344 0-2.031 1.078-.687 1.062-.687 3.156t.687 3.172q.688 1.062 2.031 1.062.625 0 1.219-.265.594-.281 1.219-.86z"/><text x="209" y="32.78" fill="#D9B8FF" font-family="Helvetica" font-size="17" textLength="71">resource</text><path fill="none" d="M114.46 221.048c28.26 30.52 70.95 76.642 99.25 107.202M102.23 207.84l7.827 17.284 8.805-8.153zm247.146 13.167c-28.45 30.52-71.476 76.683-99.956 107.243m112.23-120.41-16.662 9.075 8.777 8.183zM201.54 60.258c-28.26 30.52-70.95 76.642-99.25 107.202M213.77 47.05l-16.632 9.131 8.805 8.153zm47.854 13.167c28.45 30.52 71.476 76.683 99.956 107.243M249.35 47.05l7.885 17.258 8.777-8.183z" style="stroke:#ffaf37;stroke-width:2"/></svg>
